icons/actions/16/edit-cut.svg

<?xml version="1.0"?>
<!-- Created with Inkscape (http://www.inkscape.org/) -->
<svg xmlns:dc="http://purl.org/dc/elements/1.1/" xmlns:cc="http://creativecommons.org/ns#" xmlns:rdf="http://www.w3.org/1999/02/22-rdf-syntax-ns#" xmlns:svg="http://www.w3.org/2000/svg" xmlns="http://www.w3.org/2000/svg" xmlns:sodipodi="http://sodipodi.sourceforge.net/DTD/sodipodi-0.dtd" xmlns:inkscape="http://www.inkscape.org/namespaces/inkscape" width="16" height="16" id="svg3049" version="1.1" inkscape:version="0.48.4 r9939" sodipodi:docname="sc_text_marquee.svg" inkscape:export-filename="/home/uri/.kde/share/icons/NITRUX-KDE/16x16/actions/view-right-new.png" inkscape:export-xdpi="30" inkscape:export-ydpi="30">
  <defs id="defs3051">
    <style type="text/css" id="current-color-scheme">
      .ColorScheme-Text {
        color:#4d4d4d;
      }
      .ColorScheme-Background {
        color:#eff0f1;
      }
      .ColorScheme-Highlight {
        color:#3daee9;
      }
      .ColorScheme-ViewText {
        color:#31363b;
      }
      .ColorScheme-ViewBackground {
        color:#fcfcfc;
      }
      .ColorScheme-ViewHover {
        color:#93cee9;
      }
      .ColorScheme-ViewFocus{
        color:#3daee9;
      }
      .ColorScheme-ButtonText {
        color:#31363b;
      }
      .ColorScheme-ButtonBackground {
        color:#eff0f1;
      }
      .ColorScheme-ButtonHover {
        color:#93cee9;
      }
      .ColorScheme-ButtonFocus{
        color:#3daee9;
      }
      </style>
  </defs>
  <sodipodi:namedview id="base" pagecolor="#ffffff" bordercolor="#666666" borderopacity="1.0" inkscape:pageopacity="0.0" inkscape:pageshadow="2" inkscape:zoom="45.254834" inkscape:cx="4.557228" inkscape:cy="8.8085124" inkscape:document-units="px" inkscape:current-layer="layer1" showgrid="true" fit-margin-top="0" fit-margin-left="0" fit-margin-right="0" fit-margin-bottom="0" inkscape:window-width="1868" inkscape:window-height="1060" inkscape:window-x="50" inkscape:window-y="-3" inkscape:window-maximized="1" inkscape:showpageshadow="false" borderlayer="true" inkscape:snap-bbox="true" inkscape:snap-global="false">
    <inkscape:grid type="xygrid" id="grid4085"/>
    <sodipodi:guide position="2.0000044,14.00003" orientation="12,0" id="guide4075"/>
    <sodipodi:guide position="2.0000044,2.0000296" orientation="0,12" id="guide4077"/>
    <sodipodi:guide position="14,9" orientation="-12,0" id="guide4079"/>
    <sodipodi:guide position="14.000004,14.00003" orientation="0,-12" id="guide4081"/>
  </sodipodi:namedview>
  <metadata id="metadata3054">
    <rdf:RDF>
      <cc:Work rdf:about="">
        <dc:format>image/svg+xml</dc:format>
        <dc:type rdf:resource="http://purl.org/dc/dcmitype/StillImage"/>
        <dc:title/>
      </cc:Work>
    </rdf:RDF>
  </metadata>
  <g inkscape:label="Capa 1" inkscape:groupmode="layer" id="layer1" transform="translate(-421.71429,-531.79074)">
    <path style="text-decoration:none;fill:currentColor;fill-opacity:1;fill-rule:nonzero;stroke:none;visibility:visible;display:inline;overflow:visible;enable-background:accumulate" d="M 5,2 C 4.56699,2.75 4.34824,2.75001 4.78125,3.5 l 2.625,4.5 -1.5,2.21875 C 5.6347025,10.080881 5.3253907,10 5,10 c -1.1045695,0 -2,0.895439 -2,2 0,1.104561 0.8954305,2 2,2 1.1045695,0 2,-0.895439 2,-2 0,-0.404537 -0.1372503,-0.779029 -0.34375,-1.09375 -0.00494,-0.0075 0.00504,-0.02379 0,-0.03125 L 7.09375,10.25 C 7.8961731,10.22493 8.0078568,9.6573598 8.5,9.65625 c 0.010583,-2.39e-5 0.020299,-5.114e-4 0.03125,0 l 0.03125,0.0625 0.78125,1.15625 0,0.03125 C 9.1372503,11.220971 9,11.595464 9,12 c 0,1.10456 0.89543,2 2,2 1.10457,0 2,-0.89544 2,-2 0,-1.10456 -0.89543,-2 -2,-2 -0.325391,0 -0.634702,0.08088 -0.90625,0.21875 L 8.59375,8 c 0,0 2.634956,-4.508384 2.625,-4.5 C 11.65176,2.75001 11.433,2.75 11,2 L 8,7.125 z M 8,8 C 8.2761424,8 8.5,8.2238576 8.5,8.5 8.5,8.7537525 8.3074248,8.9676786 8.0625,9 L 7.9375,9 C 7.6925752,8.9676786 7.5,8.7537525 7.5,8.5 7.5,8.2238576 7.7238576,8 8,8 z m -3,3 c 0.5522847,0 1,0.447715 1,1 0,0.552285 -0.4477153,1 -1,1 -0.5522847,0 -1,-0.447715 -1,-1 0,-0.552285 0.4477153,-1 1,-1 z m 6,0 c 0.55228,0 1,0.44772 1,1 0,0.55228 -0.44772,1 -1,1 -0.55228,0 -1,-0.44772 -1,-1 0,-0.55228 0.44772,-1 1,-1 z" transform="translate(421.71429,531.79074)" id="HATE_THIS" inkscape:connector-curvature="0" sodipodi:nodetypes="ccccsssscccsccccssssccccccssccssssssssssss" class="ColorScheme-Text"/>
  </g>
</svg>

<svg xmlns="http://www.w3.org/2000/svg" viewBox="0 0 16 16">
  <defs id="defs3051">
    <style type="text/css" id="current-color-scheme">
      .ColorScheme-Text {
        color:#4d4d4d;
      }
      </style>
  </defs>
 <path style="fill:currentColor;fill-opacity:1;stroke:none" 
     d="M 5 2 C 4.567 2.75 4.34825 2.75 4.78125 3.5 L 7.40625 8 L 5.90625 10.21875 C 5.63425 10.08075 5.325 10 5 10 C 3.895 10 3 10.895 3 12 C 3 13.105 3.895 14 5 14 C 6.105 14 7 13.105 7 12 C 7 11.595 6.86325 11.22125 6.65625 10.90625 C 6.65125 10.89825 6.66125 10.882 6.65625 10.875 L 7.09375 10.25 C 7.89575 10.225 8.008 9.65725 8.5 9.65625 C 8.511 9.65625 8.52025 9.65525 8.53125 9.65625 L 8.5625 9.71875 L 9.34375 10.875 L 9.34375 10.90625 C 9.13775 11.22125 8.9980469 11.595 8.9980469 12 C 8.9980469 13.105 9.8930469 14 10.998047 14 C 12.103047 14 12.998047 13.105 12.998047 12 C 12.998047 10.895 12.103047 10 10.998047 10 C 10.673047 10 10.36475 10.08075 10.09375 10.21875 L 8.59375 8 C 8.59375 8 11.22875 3.492 11.21875 3.5 C 11.65175 2.75 11.431047 2.75 10.998047 2 L 7.9980469 7.125 L 5 2 z M 7.9980469 8 L 8 8 C 8.276 8 8.5 8.224 8.5 8.5 C 8.5 8.754 8.3075 8.968 8.0625 9 L 7.9375 9 C 7.6925 8.968 7.4980469 8.754 7.4980469 8.5 C 7.4980469 8.224 7.7220469 8 7.9980469 8 z M 4.9980469 11 C 5.5500469 11 5.9980469 11.448 5.9980469 12 C 5.9980469 12.552 5.5500469 13 4.9980469 13 C 4.4460469 13 3.9980469 12.552 3.9980469 12 C 3.9980469 11.448 4.4460469 11 4.9980469 11 z M 10.998047 11 C 11.550047 11 11.998047 11.448 11.998047 12 C 11.998047 12.552 11.550047 13 10.998047 13 C 10.446047 13 9.9980469 12.552 9.9980469 12 C 9.9980469 11.448 10.446047 11 10.998047 11 z "
     class="ColorScheme-Text"
     />
</svg>
